!!!COM: Silva, Francisco Manoel Da
!!!CDT: 1795-1865
!!!OTL: National Anthem, Brazil
!!!ENC: Davis, Matthew J.
!!Vocal Line Only
**kern
*clefG2
*k[b-]
*F:
*M4/4
=1-
!Instrumental Introduction
1r
==|:2
!Repeat to measure 55, (the second ending)
1r
=3
1r
=4
1r
=5
1r
=6
1r
=7
1r
=8
1r
=9
1r
=10
1r
=11
1r
=12
1r
=13
1r
=14
1r
=15
1r
=16
2r
4r
!Begin Vocal Line
4c
=17
8.f
16e
8.f
16g
8.a
16g
8.a
16b-
=18
4.bn
8cc
4f
4c
=19
4.f
16e
8.g
16f
8.a
16g
8.b-
16a
=20
4f#
4g
4r
4c
=21
8.g
16f#
8.g
16a
8.b-
16a
8.b-
16cc
=22
4.cc#
8dd
4g
4cn
=23
8.g
16f#
8.a
16g
8.b-
16a
8.cc
16b-
=24
4g#
4a
4r
8.a
16a
=25
4b-
4a
8r
8a
8.b-
16a
=26
4a
2dd
8cc
8b-
=27
8b-
8a
8a
8g
8g
8f
8f
8e
=28
4e
4d
4r
8.g
16g
=29
4a
4g
8r
8.a
16g
=30
4g
2cc
8bn
8a
=31
8a
8g
8g
8f
8f
8e
8e
8d
=32
4c
4c
8r
8c
8e
8g
=33
8b-
8cc
8e
8g
8b-
8cc
8e
8g
=34
2b-
4b-
4cc
=35
8.f
16e
8.f
16g
8.a
16g
8.a
16b-
=36
2.bn
8cc
4f
4c
=37
8.f
16e
8.g
16f
8.a
16g
8.b-
16a
=38
4f#
4g
4r
4c
=39
8.g
16f#
8.g
16a
8.b-
16a
8.b-
16cc
=40
4.cc#
8dd
4g
4cn
=41
8.g
16f#
8.a
16g
8.b-
16a
8.cc
16b-
=42
4g#
4a
4r
8.r
16f
=43
8.g
16f
8.e
16f
8.e
16f
8.g
16f
=44
4.f
8b-
4b-
8.r
16g
=45
8.a
16g
8.f#
16g
8.f#
16g
8.a
16g
=46
4.g
8cc
4cc
8.r
16a
=47
8.b-
16a
8.g#
16a
8.g
16a
8.b-
16a
=48
4a
[4dd
8dd]
!Chorus
8cc
8b-
8g
=49
4g
4f
8r
8e
8f
8g
=50
8b-
8a
8e
8f
8c#
8d
8b-
8g
=51
4g
4f
8r
8g
8a
8b-
=52
8bn
8cc
8a
8f
4.d
8b-
=53
4a
8.f
16d
4c
8.d
16e
=54
!First Ending
2f
2r
==:|55
!Second Ending
2f
2r
=56
1r
=57
1r
=58
1r
==|!
*-
